X: 3
T: The Whistling Postman
R: jig
M: 6/8
L: 1/8
K: Dmaj
| f3 edB | AFA BAF | DFA dfa | baf ede |f3 edB | AFA BAF | DFA BAB | cBc d2e:|| fef afd | gfg b2g | fef afa |baf ede |f3 edB |AFA BAF |DFA BAB |cBc d3 :|


Tune 587	Setting 587

